X:142
T:Minuet 3
R:Minuet
O:England
M:3/4
A:Lancashire
B:Winder
K:G
e2 f2 ^d2 | e2 g2 f2 | e2 ^d2 e2 | fefg f2 |\
B4 A2 | G2 e2 G2 | F2 e2 ^d2 | e6 :|*
|:B2Bc Bc | d3 c B2 | AB cB AG | F3 E D2 |\
d2 dc B2 | e^d ef g2 | B2 cB AB | G6 :|*
|:g2 g2 b2 | f2 f2 a2 | e^d eg fe | ^d3 ^c B2 | \
e4 B2 | A3 G F2 | E2 e2 ^d2 | e6 :|**
